file/nok-air.svg

<svg clip-rule="evenodd" fill-rule="evenodd" stroke-linejoin="round" stroke-miterlimit="1.41421" viewBox="0 0 560 400" xmlns="http://www.w3.org/2000/svg"><g transform="matrix(.955713 0 0 .955713 88.7672 55.7007)"><g fill-rule="nonzero"><path d="m58 100.607c4.959-.398 9.992-.112 14.864.932 9.52 2.013 18.431 6.873 25.267 13.795 6.053 6.053 10.502 13.671 12.813 21.899 2.312 8.165 2.511 16.902.609 25.167-1.416 6.115-3.977 11.956-7.531 17.126-6.376 9.371-15.995 16.48-26.833 19.786-7.221 2.225-14.926 2.784-22.396 1.666-8.562-1.256-16.778-4.785-23.588-10.129-7.631-5.941-13.51-14.106-16.667-23.254-3.79-10.887-3.716-23.067.249-33.892 2.274-6.289 5.829-12.105 10.365-17.014 5.456-5.928 12.366-10.527 19.947-13.261 4.151-1.504 8.501-2.436 12.901-2.821z" fill="#231f20"/><path d="m58.373 103.341c10.092-.845 20.432 1.603 29.045 6.96 7.929 4.884 14.379 12.13 18.294 20.581 3.281 7.01 4.785 14.827 4.375 22.557-.323 7.134-2.312 14.193-5.742 20.457-2.883 5.307-6.798 10.055-11.434 13.92-4.313 3.592-9.259 6.425-14.554 8.302-8.14 2.908-17.076 3.542-25.54 1.827-4.772-.957-9.383-2.66-13.633-5.021-7.954-4.387-14.604-11.086-18.929-19.065-5.356-9.768-7.071-21.439-4.847-32.339 1.616-8.078 5.394-15.696 10.813-21.898 4.623-5.307 10.427-9.607 16.877-12.428 4.835-2.125 10.018-3.43 15.275-3.853z" fill="#fff"/><path d="m65.27 114.34c1.442-.485 3.058-.062 4.276.771 2.61 1.988 4.859 4.449 6.574 7.245 2.424 3.878 3.58 8.451 6.413 12.068.597.77 1.268 1.467 1.964 2.138 1.28 1.243 2.175 2.908 2.299 4.71.212 2.336-.696 4.648-2.15 6.463-1.305 1.69-3.219 2.734-5.046 3.79-4.188 2.299-8.587 4.201-13.012 6.003-2.983 1.193-5.99 2.337-9.06 3.294-1.877.584-3.828 1.056-5.817.969-.957-.074-1.976-.261-2.746-.882-.721-.547-1.094-1.479-.97-2.374.274-3.02 1.218-5.916 1.579-8.924.31-2.585.534-5.182.758-7.78-2.66.062-5.295.336-7.942.46-1.081.1-2.2-.447-2.734-1.417-.385-.671-.41-1.504-.137-2.224 1.616-4.711 4.462-8.924 7.855-12.553 3.318-3.505 7.134-6.562 11.359-8.911 2.088-1.156 4.263-2.15 6.537-2.846z" fill="#231f20"/><path d="m63.966 116.739c.845-.324 1.727-.659 2.659-.634.646.012 1.268.273 1.79.634.919.683 1.678 1.553 2.486 2.349 1.217 1.131 2.1 2.56 2.982 3.952 2.125 3.467 3.952 7.109 5.841 10.701.249.472.61.882.97 1.279 1.131 1.219 2.436 2.312 3.393 3.692.758 1.093.957 2.485.882 3.778-.161 1.964-1.218 3.728-2.498 5.17-1.242 1.255-2.796 2.15-4.35 2.971-2.784 1.441-5.692 2.622-8.575 3.84-4.102 1.69-8.141 3.53-12.379 4.872-1.653.509-3.343.957-5.07 1.019-.796-.025-1.678-.112-2.3-.659-.497-.745-.323-1.715-.261-2.56.373-2.709 1.156-5.357 1.591-8.066.41-2.423.646-4.884.746-7.345.621-.038 1.243-.013 1.877-.038-.324 3.021-.697 6.028-1.256 8.999-.273 1.454-.621 2.895-.795 4.362-.037.646-.112 1.343.224 1.926.161.336.496.597.882.634 1.019.125 2.038-.161 3.008-.447 2.572-.795 5.008-1.951 7.432-3.12 4.486-2.212 8.973-4.474 13.136-7.27 1.827-1.231 3.555-2.623 5.109-4.188.273-.299.633-.547.733-.958-1.007.087-1.952.498-2.933.659-1.778.224-3.567.087-5.345.037-3.069-.198-6.139-.484-9.184-.919-1.616-.224-3.207-.559-4.835-.684-2.858-.261-5.729-.298-8.6-.248-2.063 0-4.126.124-6.177.261-.957.074-1.926.347-2.871.074-.534-.136-1.156-.447-1.292-1.031 0-.324.161-.622.273-.92.783-2.113 1.802-4.126 3.057-6.003 1.368-2.063 2.958-3.99 4.599-5.841 2.946-3.343 6.624-5.966 10.502-8.128 1.479-.783 2.983-1.529 4.549-2.15z" fill="#ffcb0a"/><path d="m66.24 125.103c.423-.075.957-.1 1.292.211.224.211.075.547-.111.721-.684.683-1.653.907-2.461 1.379-.348.212-.733.324-1.131.361-.025-.423.298-.733.509-1.057.523-.646 1.082-1.367 1.902-1.615z" fill="#231f20"/><path d="m57.478 145.038c1.205-.771 2.759-.746 4.089-.323.099.062.311.037.335.199-1.155.981-2.336 1.976-3.169 3.243-.385.584-.77 1.168-1.056 1.79 1.864-2.436 4.685-3.94 7.593-4.773 1.094-.347 2.325-.447 3.406.025.857.386 1.566 1.106 1.964 1.964.099.273.248.609.037.882-.311.435-.821.684-1.28.958-.932.509-1.79 1.13-2.734 1.615-2.262 1.193-4.574 2.312-6.873 3.418-1.467.683-2.884 1.516-4.475 1.852-.422.099-.919.099-1.242-.224-.448-.46-.609-1.119-.684-1.74-.112-1.118.05-2.237.274-3.331.248-1.131.646-2.249 1.317-3.206.659-.945 1.554-1.715 2.498-2.349z" fill="#ec2028"/><path d="m81.241 164.712c.422-.398.932-.733 1.541-.733.857 0 1.727-.025 2.598.025.211.149.012.36-.087.509-.933 1.28-1.939 2.523-2.921 3.791-.746.981-1.479 2.038-1.765 3.268-.124.361.037.709.211 1.02 2.921-1.728 5.618-3.903 8.812-5.134.683-.037 1.367.15 2.038.286-1.715 1.603-3.641 2.934-5.456 4.388-.721.584-1.466 1.155-2.088 1.827 1.492 1.292 3.406 1.913 5.208 2.634.658.274 1.354.485 2.001.808-.448.497-1.132.659-1.74.858-1.268.335-2.536.634-3.841.721-.509.049-.969-.237-1.454-.336-1.951-.485-3.927-.845-5.891-1.255-.485-.15-.982.099-1.342.41-.497.509-.808 1.193-1.392 1.603-.77.447-1.703.41-2.56.398-.211-.274-.485-.534-.559-.882-.05-.697.36-1.318.459-2.001.025-.535-.236-1.02-.385-1.529-.199-.584-.174-1.243.124-1.778.112-.323.497-.335.758-.496.87-.51 1.467-1.38 1.952-2.25.708-1.392 1.404-2.796 2.137-4.188.336-.56.671-1.181 1.281-1.467.757-.274 1.715.087 2.361-.497z" fill="#ffcb0a"/><path d="m35.318 170.963c.572-.584 1.442-.683 2.225-.77 1.255-.062 2.548-.137 3.766.248.572.187.783.845.795 1.392.037.485-.186 1.02.137 1.442.783-.199 1.293-.895 2.026-1.206.696-.335 1.479-.335 2.224-.509.821-.149 1.641-.41 2.486-.423 1.318.05 2.473.758 3.728 1.069.311.236.411.684.572 1.032.348 1.019.56 2.112.448 3.194-.125.969-.361 1.914-.522 2.883-.373.062-.746.124-1.119.137-1.081.025-2.137.335-3.231.373-.721.012-1.479.024-2.163-.224-.398-.137-.783-.398-.944-.795-.162-1.069-.137-2.163-.299-3.232-.124-.373-.596-.472-.944-.509-.833-.062-1.678.099-2.448.422-.373.149-.535.547-.721.87-.41.795-1.057 1.429-1.678 2.063-.472.46-1.057.907-1.74.907-.907 0-1.827.05-2.734.05-.386 0-.771-.037-1.119-.198.062-1.231.012-2.523.559-3.667.398-.944.883-1.989.535-3.02-.149-.497-.249-1.119.161-1.529z" fill="#ffcb0a"/><path d="m61.405 170.578c.671-.224 1.405-.161 2.101-.099 1.615.136 3.206.472 4.76.919.671.212 1.354.423 1.939.821.236.174.522.397.497.733-.025.758-.448 1.442-.883 2.051-1.044 1.404-2.448 2.485-3.902 3.467-.908.646-2.076.783-3.157.907-1.032.112-2.063.124-3.095.137-.671.037-1.367.112-2.013-.087-.771-.36-1.367-1.131-1.379-2.001.049-1.38.894-2.597.956-3.99-.099-.261-.236-.496-.373-.745.373-.435.92-.646 1.418-.907 1.018-.473 2.05-.895 3.131-1.206z" fill="#ffcb0a"/><path d="m60.349 173.996c.621-.187 1.268-.199 1.902-.087.757.149 1.578.248 2.212.758-.634 1.044-1.902 1.417-3.058 1.404-.472-.012-1.019-.174-1.218-.646-.236-.472.063-.969.162-1.429z" fill="#fff"/></g><path d="m142.794 124.098h12.702v.874l10.888 29.203v-30.077h12.702v54.247h-12.702l-10.888-28.185v28.185h-12.702zm90.635 0h13.467v22.298l9.455-22.298h13.466l-11.46 27.028 11.46 27.219h-13.466l-9.455-22.456v22.456h-13.467zm97.607 0h13.562v54.247h-13.562zm21.298 0h17.669c8.93 0 16.236 7.306 16.236 16.236v.286c0 5.728-2.624 12.221-7.138 15.113l9.335 22.612h-13.562l-8.684-21.489h-.294v21.489h-13.562zm13.371 11.269h3.916c6.2 0 6.024 14.899 0 14.899h-3.916zm-64.13-11.365h-4.252l-10.283 54.248h13.562l1.212-6.399h8.831l1.195 6.303h13.562l-10.283-54.247h-13.563zm1.671 36.675 2.863-22.433 3.104 22.528zm-97.194-37.466c10.755 0 19.474 12.551 19.474 28.034s-8.719 28.035-19.474 28.035-19.474-12.552-19.474-28.035 8.719-28.034 19.474-28.034zm.196 13.2c3.284 0 5.947 6.641 5.947 14.834s-2.663 14.834-5.947 14.834-5.947-6.641-5.947-14.834 2.663-14.834 5.947-14.834z" fill="#201600"/></g></svg>

<?xml version="1.0" encoding="UTF-8" standalone="no"?>
<!DOCTYPE svg PUBLIC "-//W3C//DTD SVG 1.1//EN" "http://www.w3.org/Graphics/SVG/1.1/DTD/svg11.dtd">
<svg width="100%" height="100%" viewBox="0 0 560 400" version="1.1" xmlns="http://www.w3.org/2000/svg" xmlns:xlink="http://www.w3.org/1999/xlink" xml:space="preserve" xmlns:serif="http://www.serif.com/" style="fill-rule:evenodd;clip-rule:evenodd;stroke-linejoin:round;stroke-miterlimit:1.41421;">
    <g transform="matrix(0.955713,0,0,0.955713,88.7672,55.7007)">
        <g id="img">
            <path d="M58,100.607C62.959,100.209 67.992,100.495 72.864,101.539C82.384,103.552 91.295,108.412 98.131,115.334C104.184,121.387 108.633,129.005 110.944,137.233C113.256,145.398 113.455,154.135 111.553,162.4C110.137,168.515 107.576,174.356 104.022,179.526C97.646,188.897 88.027,196.006 77.189,199.312C69.968,201.537 62.263,202.096 54.793,200.978C46.231,199.722 38.015,196.193 31.205,190.849C23.574,184.908 17.695,176.743 14.538,167.595C10.748,156.708 10.822,144.528 14.787,133.703C17.061,127.414 20.616,121.598 25.152,116.689C30.608,110.761 37.518,106.162 45.099,103.428C49.25,101.924 53.6,100.992 58,100.607Z" style="fill:rgb(35,31,32);fill-rule:nonzero;"/>
            <path d="M58.373,103.341C68.465,102.496 78.805,104.944 87.418,110.301C95.347,115.185 101.797,122.431 105.712,130.882C108.993,137.892 110.497,145.709 110.087,153.439C109.764,160.573 107.775,167.632 104.345,173.896C101.462,179.203 97.547,183.951 92.911,187.816C88.598,191.408 83.652,194.241 78.357,196.118C70.217,199.026 61.281,199.66 52.817,197.945C48.045,196.988 43.434,195.285 39.184,192.924C31.23,188.537 24.58,181.838 20.255,173.859C14.899,164.091 13.184,152.42 15.408,141.52C17.024,133.442 20.802,125.824 26.221,119.622C30.844,114.315 36.648,110.015 43.098,107.194C47.933,105.069 53.116,103.764 58.373,103.341Z" style="fill:white;fill-rule:nonzero;"/>
            <path d="M65.27,114.34C66.712,113.855 68.328,114.278 69.546,115.111C72.156,117.099 74.405,119.56 76.12,122.356C78.544,126.234 79.7,130.807 82.533,134.424C83.13,135.194 83.801,135.891 84.497,136.562C85.777,137.805 86.672,139.47 86.796,141.272C87.008,143.608 86.1,145.92 84.646,147.735C83.341,149.425 81.427,150.469 79.6,151.525C75.412,153.824 71.013,155.726 66.588,157.528C63.605,158.721 60.598,159.865 57.528,160.822C55.651,161.406 53.7,161.878 51.711,161.791C50.754,161.717 49.735,161.53 48.965,160.909C48.244,160.362 47.871,159.43 47.995,158.535C48.269,155.515 49.213,152.619 49.574,149.611C49.884,147.026 50.108,144.429 50.332,141.831C47.672,141.893 45.037,142.167 42.39,142.291C41.309,142.391 40.19,141.844 39.656,140.874C39.271,140.203 39.246,139.37 39.519,138.65C41.135,133.939 43.981,129.726 47.374,126.097C50.692,122.592 54.508,119.535 58.733,117.186C60.821,116.03 62.996,115.036 65.27,114.34Z" style="fill:rgb(35,31,32);fill-rule:nonzero;"/>
            <path d="M63.966,116.739C64.811,116.415 65.693,116.08 66.625,116.105C67.271,116.117 67.893,116.378 68.415,116.739C69.334,117.422 70.093,118.292 70.901,119.088C72.118,120.219 73.001,121.648 73.883,123.04C76.008,126.507 77.835,130.149 79.724,133.741C79.973,134.213 80.334,134.623 80.694,135.02C81.825,136.239 83.13,137.332 84.087,138.712C84.845,139.805 85.044,141.197 84.969,142.49C84.808,144.454 83.751,146.218 82.471,147.66C81.229,148.915 79.675,149.81 78.121,150.631C75.337,152.072 72.429,153.253 69.546,154.471C65.444,156.161 61.405,158.001 57.167,159.343C55.514,159.852 53.824,160.3 52.097,160.362C51.301,160.337 50.419,160.25 49.797,159.703C49.3,158.958 49.474,157.988 49.536,157.143C49.909,154.434 50.692,151.786 51.127,149.077C51.537,146.654 51.773,144.193 51.873,141.732C52.494,141.694 53.116,141.719 53.75,141.694C53.426,144.715 53.053,147.722 52.494,150.693C52.221,152.147 51.873,153.588 51.699,155.055C51.662,155.701 51.587,156.398 51.923,156.981C52.084,157.317 52.419,157.578 52.805,157.615C53.824,157.74 54.843,157.454 55.813,157.168C58.385,156.373 60.821,155.217 63.245,154.048C67.731,151.836 72.218,149.574 76.381,146.778C78.208,145.547 79.936,144.155 81.49,142.59C81.763,142.291 82.123,142.043 82.223,141.632C81.216,141.719 80.271,142.13 79.29,142.291C77.512,142.515 75.723,142.378 73.945,142.328C70.876,142.13 67.806,141.844 64.761,141.409C63.145,141.185 61.554,140.85 59.926,140.725C57.068,140.464 54.197,140.427 51.326,140.477C49.263,140.477 47.2,140.601 45.149,140.738C44.192,140.812 43.223,141.085 42.278,140.812C41.744,140.676 41.122,140.365 40.986,139.781C40.986,139.457 41.147,139.159 41.259,138.861C42.042,136.748 43.061,134.735 44.316,132.858C45.684,130.795 47.274,128.868 48.915,127.017C51.861,123.674 55.539,121.051 59.417,118.889C60.896,118.106 62.4,117.36 63.966,116.739Z" style="fill:rgb(255,203,10);fill-rule:nonzero;"/>
            <path d="M66.24,125.103C66.663,125.028 67.197,125.003 67.532,125.314C67.756,125.525 67.607,125.861 67.421,126.035C66.737,126.718 65.768,126.942 64.96,127.414C64.612,127.626 64.227,127.738 63.829,127.775C63.804,127.352 64.127,127.042 64.338,126.718C64.861,126.072 65.42,125.351 66.24,125.103Z" style="fill:rgb(35,31,32);fill-rule:nonzero;"/>
            <path d="M57.478,145.038C58.683,144.267 60.237,144.292 61.567,144.715C61.666,144.777 61.878,144.752 61.902,144.914C60.747,145.895 59.566,146.89 58.733,148.157C58.348,148.741 57.963,149.325 57.677,149.947C59.541,147.511 62.362,146.007 65.27,145.174C66.364,144.827 67.595,144.727 68.676,145.199C69.533,145.585 70.242,146.305 70.64,147.163C70.739,147.436 70.888,147.772 70.677,148.045C70.366,148.48 69.856,148.729 69.397,149.003C68.465,149.512 67.607,150.133 66.663,150.618C64.401,151.811 62.089,152.93 59.79,154.036C58.323,154.719 56.906,155.552 55.315,155.888C54.893,155.987 54.396,155.987 54.073,155.664C53.625,155.204 53.464,154.545 53.389,153.924C53.277,152.806 53.439,151.687 53.663,150.593C53.911,149.462 54.309,148.344 54.98,147.387C55.639,146.442 56.534,145.672 57.478,145.038Z" style="fill:rgb(236,32,40);fill-rule:nonzero;"/>
            <path d="M81.241,164.712C81.663,164.314 82.173,163.979 82.782,163.979C83.639,163.979 84.509,163.954 85.38,164.004C85.591,164.153 85.392,164.364 85.293,164.513C84.36,165.793 83.354,167.036 82.372,168.304C81.626,169.285 80.893,170.342 80.607,171.572C80.483,171.933 80.644,172.281 80.818,172.592C83.739,170.864 86.436,168.689 89.63,167.458C90.313,167.421 90.997,167.608 91.668,167.744C89.953,169.347 88.027,170.678 86.212,172.132C85.491,172.716 84.746,173.287 84.124,173.959C85.616,175.251 87.53,175.872 89.332,176.593C89.99,176.867 90.686,177.078 91.333,177.401C90.885,177.898 90.201,178.06 89.593,178.259C88.325,178.594 87.057,178.893 85.752,178.98C85.243,179.029 84.783,178.743 84.298,178.644C82.347,178.159 80.371,177.799 78.407,177.389C77.922,177.239 77.425,177.488 77.065,177.799C76.568,178.308 76.257,178.992 75.673,179.402C74.903,179.849 73.97,179.812 73.113,179.8C72.902,179.526 72.628,179.266 72.554,178.918C72.504,178.221 72.914,177.6 73.013,176.917C73.038,176.382 72.777,175.897 72.628,175.388C72.429,174.804 72.454,174.145 72.752,173.61C72.864,173.287 73.249,173.275 73.51,173.114C74.38,172.604 74.977,171.734 75.462,170.864C76.17,169.472 76.866,168.068 77.599,166.676C77.935,166.116 78.27,165.495 78.88,165.209C79.637,164.935 80.595,165.296 81.241,164.712Z" style="fill:rgb(255,203,10);fill-rule:nonzero;"/>
            <path d="M35.318,170.963C35.89,170.379 36.76,170.28 37.543,170.193C38.798,170.131 40.091,170.056 41.309,170.441C41.881,170.628 42.092,171.286 42.104,171.833C42.141,172.318 41.918,172.853 42.241,173.275C43.024,173.076 43.534,172.38 44.267,172.069C44.963,171.734 45.746,171.734 46.491,171.56C47.312,171.411 48.132,171.15 48.977,171.137C50.295,171.187 51.45,171.895 52.705,172.206C53.016,172.442 53.116,172.89 53.277,173.238C53.625,174.257 53.837,175.35 53.725,176.432C53.6,177.401 53.364,178.346 53.203,179.315C52.83,179.377 52.457,179.439 52.084,179.452C51.003,179.477 49.947,179.787 48.853,179.825C48.132,179.837 47.374,179.849 46.69,179.601C46.292,179.464 45.907,179.203 45.746,178.806C45.584,177.737 45.609,176.643 45.447,175.574C45.323,175.201 44.851,175.102 44.503,175.065C43.67,175.003 42.825,175.164 42.055,175.487C41.682,175.636 41.52,176.034 41.334,176.357C40.924,177.152 40.277,177.786 39.656,178.42C39.184,178.88 38.599,179.327 37.916,179.327C37.009,179.327 36.089,179.377 35.182,179.377C34.796,179.377 34.411,179.34 34.063,179.179C34.125,177.948 34.075,176.656 34.622,175.512C35.02,174.568 35.505,173.523 35.157,172.492C35.008,171.995 34.908,171.373 35.318,170.963Z" style="fill:rgb(255,203,10);fill-rule:nonzero;"/>
            <path d="M61.405,170.578C62.076,170.354 62.81,170.417 63.506,170.479C65.121,170.615 66.712,170.951 68.266,171.398C68.937,171.61 69.62,171.821 70.205,172.219C70.441,172.393 70.727,172.616 70.702,172.952C70.677,173.71 70.254,174.394 69.819,175.003C68.775,176.407 67.371,177.488 65.917,178.47C65.009,179.116 63.841,179.253 62.76,179.377C61.728,179.489 60.697,179.501 59.665,179.514C58.994,179.551 58.298,179.626 57.652,179.427C56.881,179.067 56.285,178.296 56.273,177.426C56.322,176.046 57.167,174.829 57.229,173.436C57.13,173.175 56.993,172.94 56.856,172.691C57.229,172.256 57.776,172.045 58.274,171.784C59.292,171.311 60.324,170.889 61.405,170.578Z" style="fill:rgb(255,203,10);fill-rule:nonzero;"/>
            <path d="M60.349,173.996C60.97,173.809 61.617,173.797 62.251,173.909C63.008,174.058 63.829,174.157 64.463,174.667C63.829,175.711 62.561,176.084 61.405,176.071C60.933,176.059 60.386,175.897 60.187,175.425C59.951,174.953 60.25,174.456 60.349,173.996Z" style="fill:white;fill-rule:nonzero;"/>
        </g>
        <path id="text" d="M142.794,124.098L155.496,124.098L155.496,124.972L166.384,154.175L166.384,124.098L179.086,124.098L179.086,178.345L166.384,178.345L155.496,150.16L155.496,178.345L142.794,178.345L142.794,124.098L142.794,124.098ZM233.429,124.098L246.896,124.098L246.896,146.396L256.351,124.098L269.817,124.098L258.357,151.126L269.817,178.345L256.351,178.345L246.896,155.889L246.896,178.345L233.429,178.345L233.429,124.098ZM331.036,124.098L344.598,124.098L344.598,178.345L331.036,178.345L331.036,124.098ZM352.334,124.098L370.003,124.098C378.933,124.098 386.239,131.404 386.239,140.334L386.239,140.62C386.239,146.348 383.615,152.841 379.101,155.733L388.436,178.345L374.874,178.345L366.19,156.856L365.896,156.856L365.896,178.345L352.334,178.345L352.334,124.098ZM365.705,135.367L369.621,135.367C375.821,135.367 375.645,150.266 369.621,150.266L365.705,150.266L365.705,135.367ZM301.575,124.002L297.323,124.002L287.04,178.25L300.602,178.25L301.814,171.851L310.645,171.851L311.84,178.154L325.402,178.154L315.119,123.907L301.556,123.907L301.575,124.002ZM303.246,160.677L306.109,138.244L309.213,160.772L303.246,160.677ZM206.052,123.211C216.807,123.211 225.526,135.762 225.526,151.245C225.526,166.728 216.807,179.28 206.052,179.28C195.297,179.28 186.578,166.728 186.578,151.245C186.578,135.762 195.297,123.211 206.052,123.211ZM206.248,136.411C209.532,136.411 212.195,143.052 212.195,151.245C212.195,159.438 209.532,166.079 206.248,166.079C202.964,166.079 200.301,159.438 200.301,151.245C200.301,143.052 202.964,136.411 206.248,136.411Z" style="fill:rgb(32,22,0);"/>
    </g>
</svg>
